theme/icons/container.svg

<svg fill="none" height="24" stroke="#f4f4f7" stroke-linecap="round" stroke-linejoin="round" stroke-width="2" width="24" xmlns="http://www.w3.org/2000/svg"><path d="m0 0h24v24h-24z" stroke="none"/><path d="m20 4v.01m0 15.99v.01m0-4.01v.01m0-4.01v.01m0-4.01v.01"/><rect height="16" rx="1" width="8" x="8" y="4"/><path d="m4 4v.01m0 15.99v.01m0-4.01v.01m0-4.01v.01m0-4.01v.01"/></svg>

<svg fill="none" height="24" stroke="#f4f4f7" stroke-linecap="round" stroke-linejoin="round" stroke-width="2" width="24" xmlns="http://www.w3.org/2000/svg">
    <path d="M0 0h24v24H0z" stroke="none"/>
    <path d="M20 4v.01M20 20v.01M20 16v.01M20 12v.01M20 8v.01"/>
    <rect height="16" rx="1" width="8" x="8" y="4"/>
    <path d="M4 4v.01M4 20v.01M4 16v.01M4 12v.01M4 8v.01"/>
</svg>
